packages/icons/src/SVG/chat.svg

<svg width="12" height="12" viewBox="0 0 12 12" fill="none" xmlns="http://www.w3.org/2000/svg">
<path fill-rule="evenodd" clip-rule="evenodd" d="M8.56658 10.6705C7.71073 11.1966 6.7033 11.5 5.625 11.5C2.5184 11.5 0 8.9816 0 5.875C0 2.7684 2.5184 0.25 5.625 0.25C8.7316 0.25 11.25 2.7684 11.25 5.875C11.25 6.80322 11.0252 7.67892 10.627 8.45063L12 12L8.56658 10.6705ZM0.978261 5.875C0.978261 3.30868 3.05868 1.22826 5.625 1.22826C8.19132 1.22826 10.2717 3.30868 10.2717 5.875C10.2717 6.80081 10.001 7.66337 9.53435 8.38785L9.94395 9.47901L10.224 10.224L9.49991 9.95248L8.45855 9.55811C7.67428 10.1624 6.69161 10.5217 5.625 10.5217C3.05868 10.5217 0.978261 8.44132 0.978261 5.875Z" fill="#4C505B"/>
</svg>

<!-- Generated by IcoMoon.io -->
<svg version="1.1" xmlns="http://www.w3.org/2000/svg" width="12" height="12" viewBox="0 0 12 12">
<title>chat</title>
<path d="M8.567 10.67l3.366 1.262-1.306-3.482c0.398-0.772 0.623-1.647 0.623-2.576 0-3.107-2.518-5.625-5.625-5.625s-5.625 2.518-5.625 5.625c0 3.107 2.518 5.625 5.625 5.625 1.078 0 2.086-0.303 2.942-0.829zM0.978 5.875c0-2.566 2.080-4.647 4.647-4.647s4.647 2.080 4.647 4.647c0 0.926-0.271 1.788-0.737 2.513l0.41 1.091 0-0.001 0.28 0.746-0.724-0.272-1.041-0.394c-0.784 0.604-1.767 0.964-2.834 0.964-2.566 0-4.647-2.080-4.647-4.647z"></path>
</svg>
